docs/.gitbook/assets/icon-cloud-rain-16@light.svg

<svg width="32" height="32" viewBox="0 0 16 16" fill="none" xmlns="http://www.w3.org/2000/svg">
<rect x="0" y="0" width="16" height="16" fill="#fff"/>
<path fill-rule="evenodd" clip-rule="evenodd" d="M8 2.5C6.10772 2.5 4.56593 4.00193 4.50207 5.87832C4.49096 6.20456 4.27012 6.48615 3.95593 6.57469C3.11516 6.81163 2.5 7.58495 2.5 8.5C2.5 8.85701 2.64309 9.22969 2.87825 9.59037C3.10449 9.93734 3.00661 10.402 2.65963 10.6283C2.31266 10.8545 1.84798 10.7566 1.62175 10.4096C1.29437 9.90753 1 9.24978 1 8.5C1 7.08481 1.83942 5.86719 3.04653 5.31537C3.38045 2.87766 5.47081 1 8 1C10.5292 1 12.6196 2.87766 12.9535 5.31538C14.1606 5.86719 15 7.08481 15 8.5C15 9.20322 14.7918 9.8601 14.4335 10.4096C14.4271 10.4195 14.4205 10.4291 14.4136 10.4387L14.2333 10.6887C13.9911 11.0246 13.5223 11.1006 13.1863 10.8583C12.8504 10.6161 12.7744 10.1473 13.0167 9.81134L13.1858 9.57676C13.3847 9.26632 13.5 8.89774 13.5 8.5C13.5 7.58494 12.8848 6.81163 12.0441 6.5747C11.7299 6.48616 11.509 6.20456 11.4979 5.87832C11.4341 4.00193 9.89228 2.5 8 2.5ZM5.15384 10.0385C5.54679 10.1695 5.75916 10.5942 5.62818 10.9872L4.46151 14.4872C4.33053 14.8801 3.90579 15.0925 3.51283 14.9615C3.11987 14.8305 2.9075 14.4058 3.03849 14.0128L4.20515 10.5128C4.33614 10.1199 4.76088 9.9075 5.15384 10.0385ZM8.32083 10.0385C8.71379 10.1695 8.92616 10.5942 8.79517 10.9872L7.6285 14.4872C7.49752 14.8801 7.07278 15.0925 6.67982 14.9615C6.28686 14.8305 6.07449 14.4058 6.20548 14.0128L7.37215 10.5128C7.50313 10.1199 7.92787 9.9075 8.32083 10.0385ZM11.4878 10.0385C11.8808 10.1695 12.0931 10.5942 11.9622 10.9872L10.7955 14.4872C10.6645 14.8801 10.2398 15.0925 9.84681 14.9615C9.45386 14.8305 9.24149 14.4058 9.37247 14.0128L10.5391 10.5128C10.6701 10.1199 11.0949 9.9075 11.4878 10.0385Z" fill="#000"/>
</svg>

<svg xmlns="http://www.w3.org/2000/svg" width="32" height="32" fill="none" viewBox="0 0 16 16"><path fill="#fff" d="M0 0h16v16H0z"/><path fill="#000" fill-rule="evenodd" d="M8 2.5a3.5 3.5 0 0 0-3.498 3.378.75.75 0 0 1-.546.697A2 2 0 0 0 2.5 8.5c0 .357.143.73.378 1.09a.75.75 0 0 1-1.256.82C1.294 9.908 1 9.25 1 8.5a3.5 3.5 0 0 1 2.047-3.185 5 5 0 0 1 9.907 0 3.5 3.5 0 0 1 1.46 5.124l-.18.25a.75.75 0 0 1-1.217-.878l.169-.234a2 2 0 0 0-1.142-3.002.75.75 0 0 1-.546-.697A3.5 3.5 0 0 0 8 2.5m-2.846 7.539a.75.75 0 0 1 .474.948l-1.166 3.5a.75.75 0 0 1-1.424-.474l1.167-3.5a.75.75 0 0 1 .949-.474m3.167 0a.75.75 0 0 1 .474.948l-1.166 3.5a.75.75 0 0 1-1.424-.474l1.167-3.5a.75.75 0 0 1 .949-.474m3.167 0a.75.75 0 0 1 .474.948l-1.166 3.5a.75.75 0 0 1-1.424-.474l1.167-3.5a.75.75 0 0 1 .949-.474" clip-rule="evenodd"/></svg>
